X: 129
T: Holy Ground
M:4/4
R:reel
L:1/8
Z:added by Alf warnock alf0@rogers.com - www.alfwarnock.info/alfs
K:A
AB|"A"c3e "E7"edBG|"A"A4 A3B|"A"c2e2 "E7"edBG|"A"A6cd|
"A"e2e2 "F#m"f3g|"D"a2a2 "E7"g3f|"A"e2c2 A2c2|"E7"B6AB|
"A"c3e "E7"edBG|"A"A4 A3B|"A"c2e2 "F#m"f2"E7"g2|"D"a4 "E7"g3e|
"A"a2g2 "D"f2e2|"A"f2e2 "F#m"c2AB|"A"c3e "E7"edcB|"A"A6cd|
"A"e2e2 "F#m"f2"E7"g2|"D"a4 "E7"g3e|"A"a2g2 "D"f2e2|
"A"f2e2 "F#m"c2AB|"A"c3e "E7"edcB|"A"A6|]

